X: 7852
T: Common Ground, The
R: polka
M: 2/4
K: Dmajor
|:A|d>e fe/d/|B/G/B/d/ gf/e/|fa ea|f/g/a/f/ e/A/c/e/|
d>e fe/d/|B/G/B/d/ gf/e/|fa ef|d2 d:|
|:g|f/e/f/g/ ag/f/|e/d/e/f/ gf/e/|fa ea|f/g/a/f/ e/A/c/e/|
d>e fe/d/|B/G/B/d/ gf/e/|fa ef|d2 d:|

